X: 34299
T: Restless Boy, The
R: jig
M: 6/8
K: Gmajor
BGG Add|~B3 BAG|BDD ADD|~G3 GED|
~B3 Add|~B3 ABc|dge f2d|1 cAF G2A:|2 cAF G2F||
GBd ~g3|fed cAF|GBd ~g3|faf ~g3|
faf g2e|fed cAG|~B3 BAG|BdB cAF|
GBd ~g3|fed cAF|GBd ~g3|faf ~g3|
faf g2e|fed ^cde|~f3 ge^c|~d3 dcA||
|:GBB B2d|cAA dcA|GBB BAG|BdB cAF|
GBB B2d|cAA ABc|dge f2d|1 cAF G2F:|2 cAF G2A||

